X: 76
T:The Welsh Rabbit (2)
M:6/8
L:1/8
Q:130
C:Trad
S:Blodau'r Grug Collection Vol. 3
A:Wales
Z:brian_martin12345@yahoo.com
K:D
D2EF2G|AFA BGB|ABc def|edc d3:||
f2gafa|bag fed|f2g afa|ged cBA|f2g agf|e2f gfe|fga efg|f3d3:||
